dist/img/icon/double-mark.svg

<svg width="42" height="30" viewBox="0 0 42 30" fill="none" xmlns="http://www.w3.org/2000/svg">
<g clip-path="url(#clip0_15_932)">
<path d="M-0.065441 29.6182V27.7363C3.32183 27.0436 6.19638 25.4891 8.55819 23.0727C10.9255 20.6509 12.1255 17.5636 12.1691 13.8054C10.6964 14.9727 9.04365 15.5563 7.22729 15.5563C4.9691 15.5563 3.1691 14.8527 1.82183 13.4509C0.480013 12.0436 -0.19635 10.1345 -0.19635 7.71816C-0.19635 5.42726 0.632741 3.5018 2.28001 1.94726C3.92729 0.39271 5.94547 -0.381836 8.3291 -0.381836C11.0618 -0.381836 13.2546 0.556346 14.9018 2.43271C16.5546 4.31453 17.3782 6.82907 17.3782 9.9818C17.3782 15.3382 15.8127 19.8218 12.6927 23.4273C9.56729 27.0327 5.31819 29.0945 -0.065441 29.6182ZM23.7546 29.6182V27.7363C27.18 27.0436 30.0764 25.4891 32.4436 23.0727C34.8055 20.6509 36.0109 17.5636 36.0546 13.8054C34.5764 14.9727 32.9291 15.5563 31.1073 15.5563C28.8109 15.5563 26.9891 14.8418 25.6418 13.4182C24.2946 11.9945 23.6236 10.0909 23.6236 7.71816C23.6236 5.42726 24.4473 3.5018 26.0946 1.94726C27.7473 0.39271 29.7655 -0.381836 32.1491 -0.381836C34.8818 -0.381836 37.0855 0.556346 38.7546 2.43271C40.4236 4.31453 41.2582 6.82907 41.2582 9.9818C41.2582 15.3382 39.6873 19.8218 36.54 23.4273C33.3982 27.0327 29.1327 29.0945 23.7546 29.6182Z" fill="url(#paint0_linear_15_932)"/>
</g>
<defs>
<linearGradient id="paint0_linear_15_932" x1="20.5355" y1="-17.5997" x2="19.7535" y2="35.2163" gradientUnits="userSpaceOnUse">
<stop stop-color="white" stop-opacity="0"/>
<stop offset="1" stop-color="white"/>
</linearGradient>
<clipPath id="clip0_15_932">
<rect width="41.4545" height="30" fill="white"/>
</clipPath>
</defs>
</svg>

<svg width="42" height="30" viewBox="0 0 42 30" fill="none" xmlns="http://www.w3.org/2000/svg"><g clip-path="url(#clip0_15_932)"><path d="M-.065 29.618v-1.882c3.387-.692 6.261-2.247 8.623-4.663 2.367-2.422 3.568-5.51 3.611-9.268-1.473 1.168-3.125 1.751-4.942 1.751-2.258 0-4.058-.703-5.405-2.105C.48 12.044-.196 10.134-.196 7.718c0-2.29.829-4.216 2.476-5.77C3.927.392 5.945-.383 8.33-.383c2.732 0 4.925.938 6.572 2.815 1.653 1.882 2.476 4.396 2.476 7.549 0 5.356-1.565 9.84-4.685 13.445-3.126 3.606-7.375 5.668-12.758 6.191zm23.82 0v-1.882c3.425-.692 6.321-2.247 8.689-4.663 2.361-2.422 3.567-5.51 3.61-9.268-1.478 1.168-3.125 1.751-4.947 1.751-2.296 0-4.118-.714-5.465-2.138-1.347-1.423-2.018-3.327-2.018-5.7 0-2.29.823-4.216 2.47-5.77 1.653-1.555 3.671-2.33 6.055-2.33 2.733 0 4.937.938 6.606 2.815 1.669 1.882 2.503 4.396 2.503 7.549 0 5.356-1.57 9.84-4.718 13.445-3.142 3.606-7.407 5.668-12.785 6.191z" fill="url(#paint0_linear_15_932)"/></g><defs><linearGradient id="paint0_linear_15_932" x1="20.535" y1="-17.6" x2="19.753" y2="35.216" gradientUnits="userSpaceOnUse"><stop stop-color="#fff" stop-opacity="0"/><stop offset="1" stop-color="#fff"/></linearGradient><clipPath id="clip0_15_932"><rect width="41.455" height="30" fill="#fff"/></clipPath></defs></svg>
